X:6027
T:Gan Ainm 
R:Reel
S:
H:
N:
D:Irish Dancing Tape (P. Acc)
Z:Adrian Scahill
M:4/4
L:1/8
K:D
D2(3DDD AFdA|fdaf d'afd|e^deB ^ABGF|GE^DE A,B,=C^C|\
D2(3DDD AFdA|fdaf d'afd|fg^ga _b=fd_B|cAGE D4:||\
D2(3DDD FAde|=f^ffe dBAd|Bee^d e=dBd|efed BAFE|\
D2(3DDD FAde|=f^ffe dBAd|Bee^d e=dBA|BAFE D4:||
